Luts/1.cube
# DaVinci Resolve Cube (3D LUT).
#
#Generated by LUT Editor.
#Not-Clipped.
# 
# Mavic 3 Pro, D-Log M, 2023-03-24
#
LUT_3D_SIZE	33
0.000000	0.000000	0.000000	
0.004309	0.000291	0.000241	
0.015893	0.000714	0.000703	
0.040845	0.000595	0.001217	
0.072275	0.000230	0.001966	
0.109193	0.000000	0.003292	
0.149510	0.000000	0.005280	
0.192323	0.000050	0.007881	
0.241729	0.000000	0.012889	
0.302758	0.000002	0.024995	
0.364221	0.000000	0.040697	
0.414757	0.000000	0.047845	
0.457829	0.000000	0.050341	
0.497752	0.000000	0.051917	
0.535575	0.000000	0.052788	
0.571952	0.000001	0.053179	
0.607057	0.000001	0.053420	
0.642413	0.000000	0.053502	
0.679580	0.000000	0.053383	
0.716814	0.000000	0.052985	
0.753854	0.000000	0.052249	
0.786721	0.000000	0.050452	
0.817752	0.000000	0.047968	
0.847695	0.000000	0.044788	
0.876255	0.000000	0.040716	
0.902883	0.000000	0.036313	
0.927086	0.000000	0.030792	
0.948464	0.000000	0.024757	
0.966733	0.000000	0.018396	
0.981380	0.000000	0.012256	
0.992712	0.000000	0.005601	
1.000000	0.008296	0.002359	
1.000000	0.022619	0.005273	
0.001401	0.003092	0.000001	
0.003052	0.002984	0.000000	
0.014822	0.002774	0.000001	
0.039052	0.002170	0.000001	
0.070481	0.001861	0.000599	
0.107651	0.001884	0.001852	
0.147751	0.001803	0.003324	
0.189986	0.001142	0.004773	
0.238476	0.000000	0.008436	
0.297748	0.000001	0.018393	
0.358842	0.000000	0.033703	
0.409485	0.000000	0.041557	
0.453108	0.000000	0.044142	
0.493773	0.000000	0.045823	
0.532371	0.000000	0.047232	
0.569504	0.000000	0.048406	
0.605217	0.000000	0.049308	
0.641113	0.000000	0.049960	
0.678718	0.000000	0.050359	
0.716311	0.000000	0.050419	
0.753617	0.000000	0.050085	
0.786685	0.000000	0.048575	
0.817850	0.000000	0.045906	
0.847920	0.000000	0.042699	
0.876521	0.000000	0.039048	
0.903156	0.000000	0.034868	
0.927335	0.000000	0.029505	
0.948695	0.000000	0.023617	
0.966967	0.000000	0.017466	
0.981549	0.000000	0.011484	
0.992830	0.000000	0.004963	
1.000000	0.010151	0.002212	
1.000000	0.025336	0.005260	
0.000034	0.012568	0.000000	
0.003172	0.012352	0.000000	
0.011973	0.011908	0.000000	
0.035778	0.011906	0.000000	
0.068151	0.011157	0.000000	
0.104963	0.009937	0.000000	
0.144576	0.008386	0.000000	
0.186319	0.006561	0.000208	
0.233608	0.003754	0.001697	
0.287873	0.002158	0.007677	
0.344949	0.000909	0.016231	
0.394845	0.000118	0.020889	
0.441007	0.000000	0.025649	
0.484021	0.000000	0.029613	
0.524453	0.000000	0.033140	
0.563137	0.000000	0.036181	
0.600109	0.000000	0.038593	
0.637268	0.000000	0.040090	
0.676035	0.000000	0.041209	
0.714627	0.000000	0.041890	
0.752771	0.000000	0.042100	
0.786578	0.000000	0.041246	
0.818147	0.000000	0.039631	
0.848472	0.000000	0.037482	
0.877211	0.000000	0.034329	
0.903953	0.000000	0.030196	
0.928177	0.000000	0.025350	
0.949500	0.000000	0.019865	
0.967597	0.000000	0.014929	
0.982017	0.000000	0.009350	
0.993060	0.001979	0.003359	
1.000000	0.015218	0.001758	
1.000000	0.032026	0.005221	
0.001390	0.030649	0.000000	
0.002422	0.030362	0.000000	
0.008910	0.029643	0.000000	
0.028584	0.028794	0.000000	
0.064025	0.028965	0.000000	
0.102160	0.028397	0.000000	
0.142236	0.026891	0.000000	
0.184157	0.024298	0.000000	
0.231393	0.018895	0.000000	
0.279735	0.013580	0.000000	
0.327949	0.008588	0.000001	
0.375920	0.004998	0.001329	
0.424587	0.004035	0.005961	
0.470087	0.003193	0.010035	
0.512471	0.002029	0.013091	
0.552867	0.000771	0.015531	
0.591629	0.000000	0.017944	
0.630869	0.000000	0.020770	
0.671598	0.000000	0.023885	
0.711896	0.000000	0.026419	
0.751446	0.000000	0.028334	
0.786431	0.000000	0.029152	
0.818674	0.000000	0.028969	
0.849477	0.000001	0.027926	
0.878499	0.000001	0.025955	
0.905299	0.000000	0.022995	
0.929504	0.000000	0.019230	
0.950750	0.000000	0.015290	
0.968668	0.000000	0.010678	
0.982882	0.000000	0.005384	
0.993317	0.006603	0.001134	
1.000000	0.025122	0.001151	
1.000000	0.043585	0.005367	
0.000076	0.059010	0.000000	
0.000085	0.058808	0.000000	
0.008144	0.057883	0.000000	
0.023552	0.056676	0.000000	
0.055503	0.055471	0.000000	
0.096179	0.055264	0.000000	
0.137822	0.054884	0.000000	
0.181756	0.052923	0.000001	
0.229053	0.048287	0.000001	
0.276084	0.043458	0.000000	
0.323707	0.039652	0.000000	
0.370794	0.034333	0.000002	
0.416557	0.028223	0.000001	
0.460272	0.021663	0.000001	
0.502000	0.016011	0.000001	
0.542621	0.011223	0.000587	
0.582514	0.008271	0.002540	
0.623414	0.007025	0.005670	
0.666040	0.005199	0.008214	
0.708258	0.002683	0.010041	
0.749639	0.000493	0.011768	
0.786280	0.000000	0.013820	
0.819465	0.000000	0.015260	
0.850918	0.000000	0.015847	
0.880336	0.000001	0.015543	
0.907295	0.000001	0.014315	
0.931450	0.000000	0.012141	
0.952507	0.000044	0.009016	
0.969947	0.001472	0.005283	
0.983353	0.006897	0.001848	
0.992931	0.024088	0.000233	
1.000000	0.044622	0.001724	
1.000000	0.058164	0.005472	
0.000286	0.092713	0.000000	
0.000470	0.092447	0.000000	
0.000897	0.091767	0.000000	
0.016006	0.090549	0.000000	
0.047135	0.089094	0.000000	
0.087007	0.087688	0.000000	
0.130524	0.087041	0.000000	
0.176466	0.086373	0.000000	
0.223398	0.084879	0.000000	
0.270624	0.082192	0.000000	
0.318651	0.078644	0.000000	
0.366061	0.074411	0.000002	
0.412109	0.069391	0.000001	
0.456051	0.063786	0.000000	
0.497962	0.057882	0.000001	
0.538414	0.052120	0.000001	
0.577765	0.046734	0.000000	
0.618061	0.041088	0.000000	
0.660981	0.033278	0.000001	
0.704251	0.023865	0.000000	
0.746994	0.016849	0.000913	
0.784715	0.013228	0.002965	
0.819206	0.010183	0.004423	
0.851864	0.006636	0.004946	
0.882307	0.002887	0.004644	
0.909822	0.000522	0.003961	
0.933999	0.000000	0.002858	
0.954700	0.001258	0.001109	
0.970860	0.009688	0.000000	
0.982906	0.029465	0.000000	
0.992167	0.052351	0.000000	
0.999615	0.067724	0.002201	
1.000000	0.078806	0.005818	
0.000018	0.128819	0.000000	
0.000021	0.128638	0.000000	
0.003352	0.128015	0.000000	
0.012062	0.126982	0.000000	
0.040915	0.125587	0.000000	
0.078076	0.124002	0.000000	
0.121825	0.122702	0.000000	
0.167501	0.122052	0.000000	
0.214469	0.121568	0.000000	
0.262444	0.120755	0.000000	
0.311517	0.119056	0.000000	
0.359828	0.116489	0.000001	
0.406437	0.113037	0.000000	
0.450931	0.109064	0.000000	
0.493209	0.104723	0.000000	
0.533788	0.100118	0.000000	
0.573257	0.095259	0.000000	
0.613604	0.089563	0.000000	
0.656731	0.082983	0.000000	
0.700223	0.075865	0.000000	
0.743269	0.067789	0.000000	
0.780588	0.058836	0.000001	
0.816187	0.050876	0.000000	
0.849752	0.043506	0.000000	
0.880759	0.037476	0.000000	
0.908478	0.034253	0.000141	
0.932548	0.035228	0.000189	
0.952818	0.040848	0.000049	
0.968946	0.051914	0.000000	
0.981504	0.067716	0.000000	
0.991151	0.085976	0.000001	
0.999063	0.094101	0.002807	
1.000000	0.101746	0.006351	
0.000149	0.166562	0.000000	
0.000243	0.166334	0.000000	
0.000484	0.165701	0.000000	
0.006070	0.164686	0.000000	
0.031823	0.163190	0.000000	
0.071641	0.161690	0.000000	
0.112921	0.160819	0.000000	
0.157927	0.160040	0.000000	
0.204728	0.159480	0.000000	
0.252729	0.159087	0.000000	
0.302116	0.158620	0.000000	
0.351546	0.157685	0.000000	
0.399274	0.155995	0.000000	
0.444582	0.153282	0.000000	
0.487448	0.150221	0.000000	
0.528357	0.146843	0.000000	
0.567977	0.143189	0.000000	
0.608501	0.139097	0.000000	
0.651836	0.134004	0.000000	
0.695616	0.128014	0.000000	
0.737612	0.120999	0.000000	
0.775162	0.112798	0.000001	
0.811260	0.104731	0.000000	
0.845264	0.097435	0.000000	
0.876696	0.091304	0.000000	
0.904898	0.087486	0.000000	
0.929406	0.087204	0.000000	
0.950094	0.091339	0.000001	
0.966746	0.098682	0.000001	
0.979846	0.108465	0.000001	
0.989938	0.120842	0.000001	
0.998381	0.122765	0.003439	
1.000000	0.127075	0.007021	
0.000000	0.204317	0.000000	
0.000000	0.204129	0.000000	
0.002349	0.203495	0.000000	
0.008363	0.202445	0.000000	
0.023752	0.201487	0.000000	
0.062200	0.200778	0.000000	
0.103114	0.200068	0.000000	
0.147989	0.199324	0.000000	
0.194744	0.198525	0.000000	
0.242328	0.197992	0.000000	
0.291471	0.197694	0.000000	
0.341550	0.197444	0.000000	
0.390320	0.196837	0.000000	
0.436714	0.195701	0.000000	
0.480454	0.194060	0.000000	
0.521903	0.191986	0.000001	
0.561938	0.189342	0.000001	
0.602695	0.186106	0.000000	
0.646399	0.182197	0.000001	
0.690504	0.177986	0.000001	
0.731004	0.171774	0.000000	
0.769165	0.164404	0.000000	
0.805747	0.156975	0.000000	
0.840229	0.149766	0.000000	
0.872120	0.143680	0.000000	
0.900768	0.139545	0.000001	
0.925766	0.137933	0.000000	
0.947055	0.139055	0.000000	
0.964310	0.142473	0.000000	
0.977971	0.147942	0.000000	
0.988882	0.152640	0.000935	
0.997582	0.152465	0.004084	
1.000000	0.153674	0.007699	
0.000592	0.242188	0.000000	
0.000706	0.242070	0.000000	
0.001001	0.241793	0.000000	
0.003596	0.241520	0.000000	
0.020435	0.241088	0.000000	
0.046553	0.240570	0.000000	
0.091738	0.240012	0.000000	
0.137039	0.239396	0.000000	
0.184160	0.238722	0.000000	
0.231738	0.237747	0.000000	
0.280443	0.237040	0.000000	
0.330557	0.236638	0.000000	
0.380077	0.236455	0.000000	
0.427604	0.236185	0.000000	
0.472300	0.235479	0.000000	
0.514485	0.234298	0.000000	
0.555023	0.232730	0.000000	
0.596223	0.230727	0.000001	
0.640376	0.228093	0.000001	
0.683933	0.224428	0.000000	
0.723944	0.218392	0.000000	
0.762767	0.211841	0.000000	
0.799864	0.205113	0.000000	
0.834816	0.198668	0.000000	
0.867142	0.192821	0.000000	
0.896281	0.187972	0.000000	
0.921832	0.184897	0.000000	
0.943776	0.183692	0.000001	
0.961679	0.183863	0.000001	
0.975942	0.185586	0.000001	
0.987634	0.184896	0.001766	
0.996667	0.182743	0.004735	
1.000000	0.180838	0.008417	
0.000000	0.282471	0.000000	
0.000000	0.282452	0.000000	
0.001057	0.282337	0.000000	
0.003240	0.282114	0.000000	
0.005700	0.281821	0.000000	
0.037676	0.281392	0.000000	
0.077329	0.280853	0.000000	
0.123938	0.280264	0.000000	
0.172532	0.279602	0.000000	
0.220926	0.278882	0.000000	
0.269369	0.277953	0.000000	
0.319341	0.277250	0.000000	
0.369044	0.276787	0.000000	
0.417287	0.276528	0.000000	
0.463142	0.276211	0.000000	
0.506110	0.275633	0.000000	
0.547247	0.274774	0.000000	
0.589017	0.273517	0.000001	
0.633805	0.271689	0.000001	
0.675748	0.267438	0.000001	
0.716560	0.262067	0.000001	
0.756091	0.256170	0.000000	
0.793709	0.250090	0.000000	
0.829146	0.243986	0.000000	
0.861927	0.238071	0.000000	
0.891577	0.232550	0.000000	
0.917769	0.227940	0.000000	
0.940379	0.224571	0.000000	
0.958896	0.222383	0.000000	
0.973765	0.221535	0.000000	
0.986347	0.216013	0.002884	
0.995736	0.211882	0.005659	
1.000000	0.208266	0.009162	
0.000157	0.323995	0.000000	
0.000185	0.323962	0.000000	
0.000260	0.323868	0.000000	
0.000363	0.323718	0.000000	
0.009119	0.323434	0.000000	
0.026572	0.323027	0.000000	
0.061904	0.322559	0.000000	
0.110143	0.322031	0.000000	
0.158896	0.321456	0.000000	
0.208515	0.320806	0.000000	
0.257960	0.320057	0.000000	
0.307672	0.319079	0.000000	
0.357789	0.318240	0.000000	
0.406431	0.317594	0.000000	
0.453065	0.317150	0.000000	
0.497041	0.316779	0.000000	
0.538811	0.316248	0.000000	
0.581171	0.315425	0.000000	
0.624883	0.312889	0.000000	
0.667176	0.308740	0.000000	
0.708908	0.303928	0.000000	
0.749235	0.298525	0.000000	
0.787435	0.292816	0.000000	
0.823389	0.286789	0.000000	
0.856636	0.280644	0.000000	
0.886839	0.274394	0.000000	
0.913653	0.268432	0.000000	
0.936873	0.263042	0.000000	
0.956031	0.258301	0.000000	
0.971887	0.253290	0.001142	
0.984894	0.246675	0.003869	
0.994727	0.240462	0.006716	
1.000000	0.235407	0.009925	
0.000000	0.365262	0.000000	
0.000000	0.365242	0.000000	
0.000000	0.365183	0.000000	
0.001261	0.365000	0.000000	
0.002742	0.364752	0.000000	
0.009225	0.364441	0.000000	
0.050664	0.364028	0.000000	
0.092840	0.363554	0.000000	
0.143973	0.363013	0.000000	
0.194903	0.362395	0.000000	
0.245345	0.361688	0.000000	
0.295834	0.360861	0.000000	
0.346127	0.359835	0.000000	
0.395338	0.358867	0.000000	
0.442421	0.358049	0.000000	
0.487487	0.357431	0.000000	
0.529811	0.356898	0.000000	
0.571882	0.355459	0.000000	
0.614862	0.352010	0.000000	
0.658247	0.348164	0.000000	
0.701084	0.343807	0.000000	
0.742280	0.338822	0.000001	
0.781150	0.333382	0.000001	
0.817697	0.327364	0.000000	
0.851454	0.320971	0.000000	
0.882201	0.314139	0.000000	
0.909610	0.307259	0.000000	
0.933360	0.300365	0.000000	
0.953217	0.293155	0.000346	
0.970004	0.284405	0.002514	
0.983319	0.276960	0.004763	
0.993635	0.269018	0.007750	
1.000000	0.262716	0.010691	
0.000003	0.405741	0.000000	
0.000004	0.405712	0.000000	
0.000007	0.405624	0.000000	
0.000010	0.405484	0.000000	
0.000257	0.405296	0.000000	
0.012023	0.405000	0.000000	
0.026061	0.404654	0.000000	
0.076174	0.404245	0.000000	
0.127300	0.403777	0.000000	
0.179532	0.403200	0.000000	
0.231205	0.402521	0.000000	
0.282861	0.401736	0.000000	
0.334069	0.400797	0.000000	
0.383848	0.399685	0.000000	
0.431530	0.398566	0.000000	
0.477103	0.397560	0.000000	
0.519511	0.395951	0.000000	
0.560552	0.392933	0.000000	
0.604359	0.389554	0.000000	
0.648948	0.385748	0.000000	
0.693026	0.381478	0.000000	
0.735294	0.376659	0.000000	
0.775005	0.371212	0.000001	
0.812210	0.365195	0.000000	
0.846486	0.358573	0.000000	
0.877742	0.351412	0.000000	
0.905754	0.344015	0.000000	
0.929869	0.336058	0.000000	
0.950639	0.326555	0.001482	
0.967962	0.316095	0.003736	
0.981771	0.306356	0.005914	
0.992452	0.296944	0.008752	
1.000000	0.289619	0.011447	
0.000000	0.445118	0.000000	
0.000000	0.445098	0.000000	
0.000001	0.445042	0.000000	
0.000295	0.444935	0.000000	
0.001522	0.444736	0.000000	
0.002786	0.444491	0.000000	
0.021210	0.444178	0.000000	
0.059730	0.443798	0.000000	
0.107216	0.443340	0.000000	
0.163338	0.442812	0.000000	
0.215977	0.442170	0.000000	
0.268520	0.441420	0.000000	
0.321273	0.440544	0.000000	
0.371798	0.439417	0.000000	
0.420332	0.438131	0.000000	
0.465077	0.435562	0.000000	
0.506897	0.432400	0.000000	
0.548852	0.429153	0.000000	
0.593395	0.425538	0.000000	
0.639236	0.421630	0.000000	
0.684740	0.417211	0.000000	
0.728263	0.412261	0.000000	
0.769030	0.406709	0.000000	
0.806961	0.400515	0.000000	
0.841808	0.393676	0.000000	
0.873539	0.386251	0.000000	
0.901978	0.378380	0.000000	
0.926873	0.368986	0.001157	
0.948202	0.358385	0.003050	
0.965791	0.347427	0.004756	
0.980172	0.335643	0.007178	
0.991210	0.324666	0.009709	
0.999711	0.315601	0.012295	
0.000006	0.483068	0.000000	
0.000010	0.483044	0.000000	
0.000022	0.482975	0.000000	
0.000040	0.482862	0.000000	
0.000064	0.482712	0.000000	
0.002959	0.482505	0.000000	
0.010086	0.482222	0.000000	
0.029730	0.481895	0.000000	
0.088682	0.481482	0.000000	
0.143269	0.480988	0.000000	
0.199556	0.480394	0.000000	
0.252940	0.479642	0.000000	
0.306567	0.478772	0.000000	
0.358477	0.477152	0.000000	
0.406342	0.474227	0.000000	
0.451292	0.471053	0.000000	
0.493837	0.467784	0.000000	
0.536817	0.464312	0.000000	
0.582073	0.460509	0.000000	
0.629161	0.456248	0.000000	
0.676157	0.451527	0.000000	
0.721154	0.446291	0.000000	
0.763126	0.440439	0.000000	
0.801921	0.433918	0.000000	
0.837410	0.426713	0.000001	
0.869716	0.418778	0.000433	
0.898732	0.410116	0.001178	
0.924106	0.399934	0.002766	
0.945661	0.389052	0.004227	
0.963705	0.377281	0.006015	
0.978485	0.364752	0.008332	
0.989881	0.352164	0.010610	
0.998830	0.340890	0.013170	
0.000007	0.519800	0.000000	
0.000007	0.519784	0.000000	
0.000009	0.519734	0.000000	
0.000011	0.519655	0.000000	
0.000367	0.519517	0.000000	
0.001021	0.519322	0.000000	
0.001690	0.519095	0.000000	
0.030299	0.518768	0.000000	
0.061747	0.518401	0.000000	
0.121031	0.517884	0.000000	
0.180676	0.517288	0.000000	
0.235824	0.515807	0.000000	
0.289034	0.513433	0.000000	
0.341641	0.510807	0.000000	
0.391079	0.508062	0.000000	
0.437158	0.505094	0.000000	
0.480557	0.501942	0.000000	
0.524372	0.498438	0.000000	
0.570333	0.494560	0.000000	
0.618548	0.490175	0.000000	
0.667032	0.485192	0.000000	
0.713693	0.479587	0.000000	
0.757088	0.473341	0.000000	
0.796969	0.466391	0.000408	
0.833324	0.458682	0.000843	
0.866371	0.450213	0.001668	
0.895741	0.440767	0.002793	
0.921270	0.430165	0.003960	
0.943126	0.418669	0.005300	
0.961636	0.406085	0.007321	
0.976744	0.393034	0.009372	
0.988479	0.379729	0.011441	
0.997881	0.365896	0.014007	
0.000001	0.557778	0.000000	
0.000002	0.557766	0.000000	
0.000029	0.557710	0.000000	
0.000074	0.557619	0.000000	
0.000132	0.557497	0.000000	
0.000203	0.557346	0.000000	
0.003683	0.557034	0.000000	
0.007518	0.556672	0.000000	
0.046448	0.555577	0.000000	
0.099022	0.554200	0.000000	
0.155927	0.552416	0.000000	
0.214932	0.550315	0.000000	
0.269237	0.547988	0.000000	
0.322751	0.545468	0.000000	
0.374226	0.542769	0.000000	
0.421943	0.539938	0.000000	
0.466341	0.536897	0.000011	
0.511149	0.533372	0.000080	
0.557807	0.529391	0.000141	
0.606975	0.524802	0.000226	
0.657067	0.519469	0.000347	
0.705551	0.513397	0.000514	
0.750692	0.506598	0.000877	
0.791914	0.499082	0.001435	
0.829251	0.490760	0.002131	
0.862981	0.481845	0.002954	
0.892627	0.471653	0.003877	
0.918440	0.460474	0.005035	
0.940719	0.448207	0.006718	
0.959476	0.435176	0.008494	
0.974724	0.421283	0.010328	
0.987030	0.407498	0.012452	
0.996815	0.392933	0.014836	
0.000018	0.593902	0.000000	
0.000019	0.593889	0.000000	
0.000023	0.593848	0.000000	
0.000029	0.593783	0.000000	
0.000094	0.593677	0.000001	
0.000307	0.593507	0.000004	
0.000553	0.593307	0.000007	
0.007875	0.592893	0.000013	
0.022033	0.592280	0.000021	
0.064824	0.591192	0.000033	
0.128368	0.589520	0.000049	
0.188039	0.587591	0.000073	
0.246265	0.585416	0.000102	
0.300422	0.583060	0.000141	
0.353565	0.580462	0.000188	
0.403513	0.577688	0.000245	
0.449714	0.574746	0.000312	
0.495716	0.571368	0.000394	
0.543364	0.567405	0.000501	
0.593490	0.562723	0.000655	
0.645363	0.557176	0.000889	
0.695918	0.550775	0.001229	
0.743152	0.543353	0.001691	
0.786063	0.535063	0.002273	
0.824783	0.526054	0.002969	
0.859137	0.515978	0.003795	
0.889311	0.504854	0.005033	
0.915546	0.492843	0.006427	
0.938072	0.479948	0.007945	
0.957107	0.466326	0.009558	
0.972638	0.451789	0.011233	
0.985446	0.437199	0.013612	
0.995576	0.422142	0.015678	
0.000013	0.632858	0.000000	
0.000019	0.632842	0.000001	
0.000036	0.632797	0.000001	
0.000064	0.632723	0.000002	
0.000101	0.632622	0.000004	
0.000146	0.632498	0.000006	
0.001256	0.632268	0.000013	
0.002601	0.631992	0.000023	
0.013955	0.631465	0.000038	
0.045048	0.630592	0.000060	
0.090426	0.629438	0.000089	
0.156859	0.627707	0.000128	
0.216948	0.625718	0.000178	
0.274879	0.623516	0.000236	
0.329497	0.621089	0.000309	
0.381488	0.618423	0.000392	
0.430400	0.615541	0.000487	
0.477709	0.612320	0.000598	
0.526716	0.608428	0.000734	
0.578051	0.603830	0.000906	
0.631586	0.598259	0.001144	
0.684312	0.591613	0.001516	
0.734066	0.583824	0.002071	
0.779217	0.574874	0.002821	
0.819467	0.564780	0.003751	
0.854874	0.553457	0.004848	
0.885746	0.541114	0.006091	
0.912420	0.527903	0.007453	
0.935252	0.513977	0.008910	
0.954572	0.499532	0.010442	
0.970539	0.484224	0.012378	
0.983660	0.469031	0.014699	
0.994135	0.453392	0.016495	
0.000011	0.673454	0.000001	
0.000011	0.673444	0.000001	
0.000012	0.673415	0.000001	
0.000024	0.673363	0.000001	
0.000103	0.673257	0.000005	
0.000201	0.673126	0.000009	
0.000313	0.672971	0.000015	
0.002567	0.672703	0.000028	
0.005648	0.672370	0.000046	
0.023758	0.671732	0.000071	
0.064372	0.670763	0.000107	
0.116050	0.669477	0.000153	
0.183524	0.667668	0.000211	
0.242968	0.665683	0.000287	
0.301291	0.663457	0.000373	
0.355581	0.661032	0.000477	
0.407126	0.658296	0.000600	
0.456563	0.655297	0.000741	
0.507371	0.651695	0.000919	
0.560142	0.647298	0.001137	
0.615142	0.642018	0.001411	
0.670310	0.635598	0.001792	
0.722842	0.627953	0.002359	
0.770739	0.618455	0.003143	
0.812885	0.607211	0.004148	
0.849773	0.594576	0.005325	
0.881688	0.580837	0.006638	
0.909034	0.566239	0.008052	
0.932294	0.551042	0.009534	
0.951789	0.534967	0.011362	
0.968342	0.518949	0.013430	
0.981722	0.502967	0.015620	
0.992490	0.486767	0.017218	
0.000023	0.714527	0.000002	
0.000025	0.714517	0.000002	
0.000029	0.714489	0.000002	
0.000036	0.714443	0.000003	
0.000046	0.714381	0.000004	
0.000161	0.714261	0.000010	
0.000319	0.714109	0.000018	
0.000497	0.713935	0.000028	
0.004220	0.713621	0.000049	
0.008660	0.713253	0.000075	
0.038238	0.712501	0.000112	
0.079965	0.711552	0.000160	
0.138866	0.710172	0.000224	
0.207768	0.708377	0.000298	
0.266073	0.706413	0.000396	
0.325211	0.704171	0.000507	
0.378822	0.701795	0.000634	
0.431105	0.698984	0.000794	
0.484675	0.695626	0.000984	
0.539347	0.691574	0.001223	
0.595771	0.686682	0.001514	
0.653679	0.680736	0.001873	
0.708735	0.673213	0.002366	
0.759210	0.663809	0.003089	
0.804490	0.652410	0.004068	
0.843459	0.639135	0.005288	
0.876902	0.624344	0.006676	
0.905317	0.608366	0.008308	
0.929300	0.591628	0.010140	
0.949191	0.574093	0.012071	
0.966039	0.556850	0.014106	
0.979631	0.539693	0.016227	
0.990640	0.522553	0.017762	
0.000025	0.754957	0.000003	
0.000027	0.754949	0.000003	
0.000034	0.754924	0.000004	
0.000045	0.754883	0.000005	
0.000061	0.754827	0.000006	
0.000080	0.754757	0.000008	
0.000252	0.754622	0.000019	
0.000453	0.754467	0.000031	
0.001076	0.754281	0.000046	
0.006234	0.753940	0.000075	
0.011129	0.753580	0.000106	
0.049578	0.752743	0.000157	
0.088232	0.751870	0.000212	
0.157723	0.750378	0.000290	
0.226632	0.748589	0.000379	
0.286891	0.746643	0.000488	
0.344784	0.744473	0.000614	
0.400580	0.742075	0.000762	
0.457235	0.739084	0.000959	
0.514636	0.735312	0.001194	
0.573285	0.730671	0.001484	
0.632949	0.724894	0.001836	
0.691035	0.717848	0.002276	
0.744494	0.709127	0.002887	
0.792901	0.698282	0.003784	
0.835347	0.685201	0.005002	
0.871106	0.670070	0.006529	
0.901028	0.653336	0.008273	
0.925805	0.635309	0.010163	
0.946572	0.616989	0.012168	
0.963718	0.598319	0.014254	
0.977498	0.579840	0.016428	
0.988625	0.561563	0.018166	
0.000024	0.794085	0.000003	
0.000027	0.794078	0.000003	
0.000036	0.794057	0.000004	
0.000050	0.794021	0.000005	
0.000069	0.793973	0.000007	
0.000093	0.793913	0.000010	
0.000183	0.793821	0.000016	
0.000373	0.793685	0.000028	
0.000583	0.793535	0.000042	
0.003283	0.793299	0.000065	
0.007887	0.792988	0.000097	
0.019735	0.792535	0.000137	
0.051151	0.791838	0.000192	
0.098256	0.790868	0.000259	
0.173531	0.789287	0.000342	
0.240484	0.787499	0.000442	
0.301890	0.785530	0.000555	
0.362680	0.783174	0.000699	
0.423634	0.780352	0.000873	
0.484022	0.776751	0.001112	
0.545308	0.772390	0.001396	
0.607656	0.767041	0.001746	
0.668945	0.760473	0.002173	
0.726137	0.752541	0.002694	
0.777965	0.742802	0.003415	
0.824017	0.730766	0.004466	
0.863174	0.715935	0.005873	
0.895682	0.699592	0.007619	
0.922263	0.681667	0.009589	
0.943909	0.662665	0.011709	
0.961486	0.643122	0.013920	
0.975471	0.623477	0.016205	
0.986562	0.604054	0.018209	
0.000026	0.830222	0.000003	
0.000028	0.830216	0.000003	
0.000036	0.830200	0.000004	
0.000049	0.830174	0.000005	
0.000066	0.830138	0.000007	
0.000088	0.830093	0.000009	
0.000137	0.830031	0.000013	
0.000292	0.829928	0.000025	
0.000463	0.829812	0.000037	
0.001297	0.829661	0.000054	
0.004268	0.829419	0.000083	
0.007161	0.829164	0.000114	
0.020712	0.828652	0.000166	
0.036528	0.828163	0.000218	
0.105346	0.826916	0.000295	
0.181974	0.825310	0.000375	
0.248121	0.823481	0.000481	
0.314084	0.821357	0.000601	
0.380702	0.818712	0.000765	
0.447073	0.815541	0.000962	
0.510977	0.811553	0.001236	
0.576652	0.806680	0.001560	
0.642011	0.800778	0.001957	
0.703507	0.793590	0.002440	
0.758761	0.784607	0.003023	
0.808910	0.774148	0.003835	
0.852591	0.761280	0.005016	
0.889054	0.745955	0.006597	
0.918129	0.728538	0.008531	
0.941159	0.709673	0.010694	
0.959400	0.689911	0.012996	
0.973753	0.669718	0.015534	
0.984726	0.649889	0.017248	
0.000027	0.862945	0.000003	
0.000029	0.862941	0.000004	
0.000034	0.862929	0.000004	
0.000043	0.862910	0.000005	
0.000054	0.862884	0.000006	
0.000069	0.862851	0.000008	
0.000116	0.862801	0.000012	
0.000224	0.862724	0.000022	
0.000344	0.862637	0.000032	
0.000600	0.862529	0.000045	
0.001515	0.862349	0.000071	
0.002406	0.862176	0.000096	
0.009216	0.861855	0.000136	
0.019137	0.861450	0.000184	
0.042671	0.860911	0.000238	
0.115601	0.859632	0.000315	
0.184212	0.858190	0.000390	
0.252175	0.856348	0.000500	
0.326676	0.854054	0.000628	
0.398885	0.851217	0.000808	
0.470855	0.847791	0.001020	
0.538030	0.843151	0.001316	
0.608161	0.838002	0.001666	
0.675351	0.831816	0.002093	
0.735925	0.824366	0.002617	
0.790389	0.815467	0.003251	
0.838648	0.804533	0.004130	
