Luts/1.cube
# DaVinci Resolve Cube (3D LUT).
#
#Generated by LUT Editor.
#Not-Clipped.
# 
# Mavic 3 Pro, D-Log M, 2023-03-24
#
LUT_3D_SIZE 9
0.000000	0.000000	0.000000	
0.072275	0.000230	0.001966	
0.241729	0.000000	0.012889	
0.457829	0.000000	0.050341	
0.607057	0.000001	0.053420	
0.753854	0.000000	0.052249	
0.876255	0.000000	0.040716	
0.966733	0.000000	0.018396	
1.000000	0.022619	0.005273	
0.000076	0.059010	0.000000	
0.055503	0.055471	0.000000	
0.229053	0.048287	0.000001	
0.416557	0.028223	0.000001	
0.582514	0.008271	0.002540	
0.749639	0.000493	0.011768	
0.880336	0.000001	0.015543	
0.969947	0.001472	0.005283	
1.000000	0.058164	0.005472	
0.000000	0.204317	0.000000	
0.023752	0.201487	0.000000	
0.194744	0.198525	0.000000	
0.390320	0.196837	0.000000	
0.561938	0.189342	0.000001	
0.731004	0.171774	0.000000	
0.872120	0.143680	0.000000	
0.964310	0.142473	0.000000	
1.000000	0.153674	0.007699	
0.000000	0.365262	0.000000	
0.002742	0.364752	0.000000	
0.143973	0.363013	0.000000	
0.346127	0.359835	0.000000	
0.529811	0.356898	0.000000	
0.701084	0.343807	0.000000	
0.851454	0.320971	0.000000	
0.953217	0.293155	0.000346	
1.000000	0.262716	0.010691	
0.000007	0.519800	0.000000	
0.000367	0.519517	0.000000	
0.061747	0.518401	0.000000	
0.289034	0.513433	0.000000	
0.480557	0.501942	0.000000	
0.667032	0.485192	0.000000	
0.833324	0.458682	0.000843	
0.943126	0.418669	0.005300	
0.997881	0.365896	0.014007	
0.000011	0.673454	0.000001	
0.000103	0.673257	0.000005	
0.005648	0.672370	0.000046	
0.183524	0.667668	0.000211	
0.407126	0.658296	0.000600	
0.615142	0.642018	0.001411	
0.812885	0.607211	0.004148	
0.932294	0.551042	0.009534	
0.992490	0.486767	0.017218	
0.000026	0.830222	0.000003	
0.000066	0.830138	0.000007	
0.000463	0.829812	0.000037	
0.020712	0.828652	0.000166	
0.248121	0.823481	0.000481	
0.510977	0.811553	0.001236	
0.758761	0.784607	0.003023	
0.918129	0.728538	0.008531	
0.984726	0.649889	0.017248	
0.000017	0.942764	0.000003	
0.000050	0.942726	0.000007	
0.000139	0.942636	0.000018	
0.000739	0.942359	0.000068	
0.021213	0.941637	0.000192	
0.266293	0.937995	0.000538	
0.631613	0.926700	0.001536	
0.880702	0.901650	0.004002	
0.980021	0.844319	0.010929	
0.000031	1.000000	0.000004	
0.000036	1.000000	0.000004	
0.000061	1.000000	0.000006	
0.000270	1.000000	0.000013	
0.002357	1.000000	0.000021	
0.017517	1.000000	0.000040	
0.307470	1.000000	0.000078	
0.782461	0.997878	0.000072	
0.976235	0.984942	0.000000	
0.000702	0.000000	0.072197	
0.069132	0.000989	0.073709	
0.251103	0.001666	0.078642	
0.461640	0.001625	0.094198	
0.609337	0.002493	0.085117	
0.754209	0.004625	0.076617	
0.875068	0.006984	0.063473	
0.965233	0.010842	0.051327	
1.000000	0.015812	0.039172	
0.000019	0.057824	0.057935	
0.053454	0.053463	0.053492	
0.228432	0.043619	0.048055	
0.418919	0.027178	0.040733	
0.587648	0.020642	0.044374	
0.749608	0.019049	0.047564	
0.876927	0.020947	0.046034	
0.966336	0.032441	0.041656	
1.000000	0.032301	0.033112	
0.000000	0.203353	0.021391	
0.020750	0.201257	0.019027	
0.193522	0.196769	0.014762	
0.388300	0.192148	0.015275	
0.560359	0.180629	0.015478	
0.732511	0.158034	0.013933	
0.876765	0.118388	0.011494	
0.970091	0.098187	0.014353	
1.000000	0.098028	0.019049	
0.000000	0.365374	0.004053	
0.002368	0.364728	0.003545	
0.141585	0.362227	0.002653	
0.344296	0.357927	0.003300	
0.528730	0.353242	0.007176	
0.702476	0.337288	0.011388	
0.856598	0.308275	0.013866	
0.960003	0.269643	0.017039	
1.000000	0.229109	0.020763	
0.000000	0.519715	0.000000	
0.000174	0.519367	0.000002	
0.059918	0.517986	0.000120	
0.288695	0.512725	0.001111	
0.480725	0.500874	0.003076	
0.668342	0.483482	0.007811	
0.837141	0.455094	0.014905	
0.948149	0.410914	0.020008	
1.000000	0.349320	0.023176	
0.000000	0.673292	0.000000	
0.000011	0.673085	0.000002	
0.004864	0.672232	0.000061	
0.188502	0.667495	0.000501	
0.409637	0.658232	0.001690	
0.617299	0.641988	0.004049	
0.815153	0.607060	0.010952	
0.935416	0.549799	0.021088	
0.995830	0.481144	0.024547	
0.000005	0.830137	0.000001	
0.000012	0.830063	0.000002	
0.000169	0.829781	0.000027	
0.020750	0.828706	0.000204	
0.252949	0.823566	0.000717	
0.513686	0.811814	0.002024	
0.760536	0.785042	0.005125	
0.919808	0.729025	0.014162	
0.987651	0.650138	0.020866	
0.000008	0.942736	0.000002	
0.000024	0.942705	0.000004	
0.000064	0.942631	0.000012	
0.000477	0.942393	0.000066	
0.021123	0.941728	0.000221	
0.270435	0.938129	0.000695	
0.633588	0.927036	0.002108	
0.881811	0.902247	0.005614	
0.981829	0.845938	0.011790	
0.000018	1.000000	0.000002	
0.000021	1.000000	0.000003	
0.000044	1.000000	0.000004	
0.000200	1.000000	0.000011	
0.002536	1.000000	0.000019	
0.017316	1.000000	0.000038	
0.310733	1.000000	0.000078	
0.783646	0.998235	0.000075	
0.977043	0.985773	0.000000	
0.001543	0.000000	0.251893	
0.064460	0.000000	0.246983	
0.268964	0.000000	0.259947	
0.459992	0.000001	0.259889	
0.606349	0.000830	0.251395	
0.752020	0.002434	0.236810	
0.873673	0.005363	0.208646	
0.964701	0.009528	0.177106	
1.000000	0.014658	0.139313	
0.000225	0.053139	0.244319	
0.049864	0.048248	0.236548	
0.233755	0.039108	0.228691	
0.431457	0.040085	0.230171	
0.592172	0.039441	0.227622	
0.747276	0.038275	0.218817	
0.873948	0.034644	0.196295	
0.965698	0.031636	0.168720	
1.000000	0.031206	0.133762	
0.000000	0.201676	0.204238	
0.016445	0.199644	0.201075	
0.192473	0.192494	0.192566	
0.384146	0.177598	0.180332	
0.557539	0.153460	0.166274	
0.735925	0.130433	0.159176	
0.876913	0.116055	0.154849	
0.969384	0.100045	0.140834	
1.000000	0.080227	0.114873	
0.000000	0.364584	0.163115	
0.001928	0.363650	0.161069	
0.147101	0.360052	0.155184	
0.347272	0.352293	0.146319	
0.528861	0.339160	0.135286	
0.710158	0.306292	0.114738	
0.880742	0.238923	0.084534	
0.977000	0.186802	0.082861	
1.000000	0.162139	0.084168	
0.000000	0.518996	0.119228	
0.000000	0.518512	0.117691	
0.074456	0.516733	0.112958	
0.295998	0.509837	0.104591	
0.484625	0.496900	0.093787	
0.674682	0.476179	0.082250	
0.853859	0.438028	0.075948	
0.965843	0.373944	0.070698	
1.000000	0.297662	0.064899	
0.000000	0.672533	0.050561	
0.000000	0.672283	0.049201	
0.005682	0.671368	0.045237	
0.200897	0.666503	0.038728	
0.416980	0.657648	0.031453	
0.623492	0.641842	0.025801	
0.823372	0.606836	0.041057	
0.946888	0.544307	0.062419	
1.000000	0.456991	0.040537	
0.000000	0.829903	0.000000	
0.000000	0.829827	0.000000	
0.000000	0.829556	0.000000	
0.019706	0.828654	0.000090	
0.265196	0.823594	0.000885	
0.520597	0.812423	0.003729	
0.765404	0.786413	0.011387	
0.925509	0.731101	0.034454	
0.996735	0.651788	0.030085	
0.000000	0.942651	0.000000	
0.000000	0.942626	0.000000	
0.000004	0.942562	0.000001	
0.000066	0.942406	0.000021	
0.027944	0.941832	0.000188	
0.281843	0.938415	0.000933	
0.638963	0.927930	0.003485	
0.885051	0.904018	0.010112	
0.987370	0.851336	0.014307	
0.000002	1.000000	0.000001	
0.000002	1.000000	0.000001	
0.000015	1.000000	0.000002	
0.000064	1.000000	0.000006	
0.003093	1.000000	0.000014	
0.021345	1.000000	0.000032	
0.320058	1.000000	0.000078	
0.787059	0.999219	0.000084	
0.979387	0.988195	0.000000	
0.000869	0.000000	0.449594	
0.063547	0.000000	0.446340	
0.269342	0.000000	0.444526	
0.459379	0.000000	0.438826	
0.604982	0.000000	0.425025	
0.747854	0.000000	0.407383	
0.871474	0.002860	0.369306	
0.963843	0.007417	0.319528	
1.000000	0.012828	0.258318	
0.000000	0.039692	0.440593	
0.068838	0.030274	0.430502	
0.238530	0.023408	0.424109	
0.437414	0.034286	0.420829	
0.593415	0.033850	0.410531	
0.743676	0.033292	0.395606	
0.871969	0.031001	0.359553	
0.964863	0.028890	0.312619	
1.000000	0.029450	0.253557	
0.000000	0.198484	0.413039	
0.011526	0.195185	0.408875	
0.192284	0.185155	0.395509	
0.386368	0.170206	0.381095	
0.560537	0.145533	0.365780	
0.734742	0.128135	0.353748	
0.875604	0.114016	0.327522	
0.968612	0.098082	0.289882	
1.000000	0.079144	0.238409	
0.000000	0.363374	0.367418	
0.000000	0.362065	0.365217	
0.141362	0.357604	0.358837	
0.348810	0.348843	0.348958	
0.532354	0.334701	0.336529	
0.712383	0.299565	0.310041	
0.883340	0.228571	0.269478	
0.977025	0.181319	0.243755	
1.000000	0.159090	0.213028	
0.000000	0.518112	0.323834	
0.000000	0.517449	0.322213	
0.079417	0.515212	0.317418	
0.300469	0.505931	0.306104	
0.489057	0.492622	0.291757	
0.679584	0.470278	0.271028	
0.865604	0.422678	0.237013	
0.983900	0.310774	0.179433	
1.000000	0.293660	0.194610	
0.000000	0.670551	0.255773	
0.000000	0.670258	0.254557	
0.014127	0.669016	0.250784	
0.210855	0.663970	0.243471	
0.424097	0.655247	0.233109	
0.629654	0.640035	0.216868	
0.836332	0.605795	0.186599	
0.970865	0.527806	0.138440	
1.000000	0.451688	0.163902	
0.000000	0.828896	0.147693	
0.000000	0.828810	0.146638	
0.000662	0.828495	0.143485	
0.021911	0.827589	0.138159	
0.279546	0.822499	0.128965	
0.528552	0.812378	0.115225	
0.772406	0.788843	0.093340	
0.937654	0.737344	0.082793	
1.000000	0.653481	0.090244	
0.000000	0.942523	0.001052	
0.000000	0.942498	0.000989	
0.000000	0.942420	0.000815	
0.002099	0.942253	0.000576	
0.044858	0.941685	0.000376	
0.297590	0.938578	0.000819	
0.646490	0.929127	0.004553	
0.890367	0.907211	0.016053	
0.996099	0.861725	0.020208	
0.000000	1.000000	0.000000	
0.000000	1.000000	0.000000	
0.000002	1.000000	0.000000	
0.000006	1.000000	0.000001	
0.003995	1.000000	0.000007	
0.029062	1.000000	0.000023	
0.334139	1.000000	0.000078	
0.792291	1.000000	0.000104	
0.983118	0.991963	0.000000	
0.006600	0.000000	0.620078	
0.083023	0.000000	0.618373	
0.267378	0.000000	0.607005	
0.454217	0.000000	0.596441	
0.605379	0.000000	0.581305	
0.744313	0.000000	0.556465	
0.869007	0.000000	0.515661	
0.962586	0.004362	0.460564	
1.000000	0.010717	0.382802	
0.006248	0.013452	0.611463	
0.089208	0.008423	0.604347	
0.254651	0.005072	0.596697	
0.440658	0.016488	0.587688	
0.597525	0.025398	0.574009	
0.741650	0.025652	0.549472	
0.869478	0.025629	0.510596	
0.963642	0.025372	0.455765	
1.000000	0.026639	0.379096	
0.000000	0.186944	0.596905	
0.006371	0.182851	0.591943	
0.209735	0.168752	0.575518	
0.393064	0.155496	0.565416	
0.565353	0.133401	0.552533	
0.732812	0.123660	0.529829	
0.873104	0.110849	0.494441	
0.967396	0.095242	0.440544	
1.000000	0.077776	0.367329	
0.000000	0.361083	0.562319	
0.000000	0.359303	0.560211	
0.123607	0.352916	0.554105	
0.351526	0.341392	0.541377	
0.530791	0.325443	0.526500	
0.711686	0.291103	0.500792	
0.883680	0.219044	0.460511	
0.975790	0.179477	0.410052	
1.000000	0.155129	0.346631	
0.000000	0.514886	0.520160	
0.000000	0.514162	0.518799	
0.067154	0.510626	0.513695	
0.293501	0.501052	0.502164	
0.487409	0.487448	0.487588	
0.680182	0.464527	0.466312	
0.866682	0.416156	0.429407	
0.983964	0.301672	0.362580	
1.000000	0.289765	0.329121	
0.000000	0.667716	0.455026	
0.000000	0.667367	0.453948	
0.011135	0.665968	0.450619	
0.211023	0.660689	0.443083	
0.426281	0.651650	0.431951	
0.632532	0.635983	0.414618	
0.837771	0.600675	0.381357	
0.972759	0.521456	0.320395	
1.000000	0.449236	0.302142	
0.000000	0.826983	0.354437	
0.000000	0.826870	0.353560	
0.000032	0.826514	0.350960	
0.038970	0.825340	0.346380	
0.290196	0.820063	0.337178	
0.534966	0.809920	0.321710	
0.776990	0.787663	0.292299	
0.948666	0.742653	0.243134	
1.000000	0.650191	0.243557	
0.000000	0.941860	0.180931	
0.000000	0.941837	0.180169	
0.000000	0.941748	0.177856	
0.004899	0.941550	0.173993	
0.059956	0.940910	0.168158	
0.313873	0.937937	0.157670	
0.654247	0.929917	0.136988	
0.897976	0.912365	0.103674	
1.000000	0.869896	0.080740	
0.000000	1.000000	0.000000	
0.000000	1.000000	0.000000	
0.000000	1.000000	0.000000	
0.000000	1.000000	0.000000	
0.004917	1.000000	0.000002	
0.037061	1.000000	0.000012	
0.351290	1.000000	0.000081	
0.798780	1.000000	0.000148	
0.987879	0.996638	0.000000	
0.001520	0.000000	0.794738	
0.103348	0.000000	0.787425	
0.267119	0.000000	0.780697	
0.454919	0.000000	0.765984	
0.608242	0.000000	0.747678	
0.741221	0.000000	0.715386	
0.866866	0.000000	0.672549	
0.960650	0.000000	0.614416	
1.000000	0.007130	0.526543	
0.006904	0.000044	0.788722	
0.087934	0.000183	0.784730	
0.270623	0.000966	0.774775	
0.454403	0.003488	0.761178	
0.606016	0.009022	0.744246	
0.739978	0.013950	0.712830	
0.867260	0.016829	0.670637	
0.961629	0.019591	0.612548	
1.000000	0.021521	0.524209	
0.000000	0.161325	0.775851	
0.025210	0.156039	0.772327	
0.218554	0.143186	0.764164	
0.407645	0.126301	0.755502	
0.574545	0.113522	0.743723	
0.731724	0.113053	0.710448	
0.870248	0.103684	0.667409	
0.965220	0.090246	0.606551	
1.000000	0.074104	0.517050	
0.000000	0.347950	0.761638	
0.000000	0.344797	0.758832	
0.129421	0.338182	0.751666	
0.369531	0.322296	0.737029	
0.535232	0.305101	0.721922	
0.712906	0.272575	0.700144	
0.882010	0.207181	0.662540	
0.973423	0.176174	0.593814	
1.000000	0.147753	0.504561	
0.000000	0.507144	0.725490	
0.000000	0.506169	0.724417	
0.034820	0.502278	0.720941	
0.277365	0.491502	0.710569	
0.492538	0.474556	0.692408	
0.679015	0.454069	0.673128	
0.865631	0.405424	0.638464	
0.983612	0.288559	0.571201	
1.000000	0.283382	0.490285	
0.000000	0.662901	0.668388	
0.000000	0.662452	0.667522	
0.005629	0.660877	0.664860	
0.191846	0.655587	0.658080	
0.417980	0.646077	0.647142	
0.629860	0.629905	0.630064	
0.836860	0.592837	0.595968	
0.972800	0.512929	0.533248	
1.000000	0.444373	0.468005	
0.000000	0.823563	0.576748	
0.000000	0.823425	0.576080	
0.000000	0.822992	0.574094	
0.056774	0.821474	0.570099	
0.292144	0.816150	0.561322	
0.536422	0.805653	0.545947	
0.778701	0.783035	0.516534	
0.949258	0.737817	0.467057	
1.000000	0.645397	0.424765	
0.000000	0.940447	0.427464	
0.000000	0.940423	0.426910	
0.000000	0.940306	0.425214	
0.006650	0.940062	0.422369	
0.068842	0.939353	0.417957	
0.330228	0.936254	0.408527	
0.661942	0.928479	0.388845	
0.902922	0.913042	0.353278	
1.000000	0.865504	0.319602	
0.000000	1.000000	0.192827	
0.000000	1.000000	0.192178	
0.000000	1.000000	0.190190	
0.000000	1.000000	0.186941	
0.005279	1.000000	0.182294	
0.043342	1.000000	0.174933	
0.374276	1.000000	0.158899	
0.807110	1.000000	0.126648	
0.992469	1.000000	0.070946	
0.004493	0.000000	0.946283	
0.066465	0.000000	0.944581	
0.263988	0.000000	0.939045	
0.458353	0.000000	0.927348	
0.608545	0.000000	0.908971	
0.744746	0.000001	0.880499	
0.863813	0.000000	0.841841	
0.958301	0.000001	0.789289	
1.000000	0.000767	0.710838	
0.004232	0.000000	0.944937	
0.079059	0.000000	0.941983	
0.272610	0.000000	0.936422	
0.469836	0.000000	0.923289	
0.607965	0.000000	0.907700	
0.744015	0.000001	0.879593	
0.863830	0.000545	0.840725	
0.958609	0.008070	0.789303	
1.000000	0.014894	0.710421	
0.000000	0.110584	0.938400	
0.016181	0.104751	0.937095	
0.225105	0.086212	0.933287	
0.433206	0.057459	0.923788	
0.588656	0.046052	0.910066	
0.736791	0.062184	0.885600	
0.866023	0.084524	0.845840	
0.961840	0.076639	0.790142	
1.000000	0.066260	0.709364	
0.000000	0.315660	0.928444	
0.000000	0.312015	0.927301	
0.135109	0.301546	0.922877	
0.368656	0.282344	0.913875	
0.556509	0.255807	0.901942	
0.718066	0.228421	0.891438	
0.875390	0.190519	0.859939	
0.969009	0.166385	0.794791	
1.000000	0.131856	0.707878	
0.000000	0.481067	0.911508	
0.000000	0.479000	0.910481	
0.051170	0.473806	0.907144	
0.290675	0.463507	0.899884	
0.505583	0.445214	0.888157	
0.687372	0.424207	0.875334	
0.864411	0.377064	0.853279	
0.982269	0.261602	0.804753	
1.000000	0.270593	0.697755	
0.000000	0.652046	0.881843	
0.000000	0.651438	0.881311	
0.000000	0.649102	0.880102	
0.134973	0.643534	0.876377	
0.399140	0.631905	0.868346	
0.631580	0.611306	0.852613	
0.833919	0.575099	0.826920	
0.971072	0.496748	0.780335	
1.000000	0.434840	0.680890	
0.000000	0.815984	0.820449	
0.000000	0.815805	0.820080	
0.000000	0.815258	0.818990	
0.029154	0.813836	0.816791	
0.260995	0.808513	0.810544	
0.521480	0.797038	0.797992	
0.774289	0.774331	0.774474	
0.948283	0.728930	0.732504	
1.000000	0.638486	0.649128	
0.000000	0.937501	0.708388	
0.000000	0.937448	0.708022	
0.000000	0.937312	0.706937	
0.003004	0.937039	0.705118	
0.044859	0.936396	0.702218	
0.337276	0.933106	0.694137	
0.664606	0.925328	0.677049	
0.905555	0.909837	0.646321	
1.000000	0.855828	0.591285	
0.000000	1.000000	0.547186	
0.000000	1.000000	0.546817	
0.000000	1.000000	0.545729	
0.000292	1.000000	0.543950	
0.002122	1.000000	0.541402	
0.034296	1.000000	0.537121	
0.405495	1.000000	0.526795	
0.817661	1.000000	0.505633	
0.994067	1.000000	0.469982	
0.002162	0.000000	1.000000	
0.017270	0.000000	1.000000	
0.197908	0.000000	1.000000	
0.406695	0.000000	1.000000	
0.583988	0.000000	1.000000	
0.752823	0.000000	0.996903	
0.870956	0.000000	0.976566	
0.953632	0.000000	0.937697	
1.000000	0.000000	0.879804	
0.002036	0.000000	1.000000	
0.015024	0.000000	1.000000	
0.191411	0.000000	1.000000	
0.419850	0.000000	1.000000	
0.593647	0.000000	1.000000	
0.751354	0.000000	0.996839	
0.871101	0.000000	0.975977	
0.953657	0.000000	0.937225	
1.000000	0.000000	0.879469	
0.000171	0.001551	1.000000	
0.013537	0.000592	1.000000	
0.188285	0.000524	1.000000	
0.404827	0.002014	1.000000	
0.586971	0.004933	1.000000	
0.750946	0.010010	0.997016	
0.871991	0.024528	0.977286	
0.955396	0.043142	0.939316	
1.000000	0.044924	0.881510	
0.000000	0.236447	1.000000	
0.002557	0.232476	1.000000	
0.132263	0.219720	1.000000	
0.364800	0.198609	1.000000	
0.552812	0.167961	1.000000	
0.735195	0.124593	1.000000	
0.873800	0.112818	0.985493	
0.960636	0.140120	0.946902	
1.000000	0.095419	0.890148	
0.000000	0.431189	1.000000	
0.000000	0.429088	1.000000	
0.028210	0.422402	1.000000	
0.290854	0.408138	1.000000	
0.503500	0.388520	1.000000	
0.701642	0.354893	0.998222	
0.867283	0.301195	0.989601	
0.973338	0.229921	0.963074	
1.000000	0.241256	0.887416	
0.000000	0.618694	1.000000	
0.000000	0.617655	1.000000	
0.000000	0.614492	1.000000	
0.152306	0.603232	0.999730	
0.426754	0.587159	0.996488	
0.648011	0.563877	0.990609	
0.839926	0.525274	0.979248	
0.968704	0.455183	0.960374	
1.000000	0.414107	0.881348	
0.000000	0.797642	0.983344	
0.000000	0.797297	0.983262	
0.000000	0.796238	0.982996	
0.003323	0.794297	0.982479	
0.185093	0.788835	0.980408	
0.493941	0.776616	0.974344	
0.777055	0.749192	0.960259	
0.946225	0.709357	0.940825	
1.000000	0.625748	0.869937	
0.000000	0.931611	0.934672	
0.000000	0.931538	0.934535	
0.000000	0.931346	0.934123	
0.000000	0.930987	0.933445	
0.021172	0.930323	0.932364	
0.287191	0.927406	0.928881	
0.647657	0.919488	0.920138	
0.903927	0.903959	0.904067	
0.999260	0.844369	0.846291	
0.000000	1.000000	0.856786	
0.000000	1.000000	0.856614	
0.000000	1.000000	0.856104	
0.000000	1.000000	0.855247	
0.000000	1.000000	0.854052	
0.031572	1.000000	0.851959	
0.427512	1.000000	0.846322	
0.822393	1.000000	0.834310	
0.996445	1.000000	0.812783	
0.015742	0.000000	1.000000	
0.048685	0.000000	1.000000	
0.231644	0.000000	1.000000	
0.417695	0.000000	1.000000	
0.590232	0.000000	1.000000	
0.746556	0.000000	1.000000	
0.880725	0.000000	1.000000	
0.957807	0.000000	0.999364	
1.000000	0.000000	0.976438	
0.016003	0.000000	1.000000	
0.048904	0.000000	1.000000	
0.231936	0.000000	1.000000	
0.430810	0.000000	1.000000	
0.588616	0.000000	1.000000	
0.747039	0.000000	1.000000	
0.880852	0.000000	1.000000	
0.957846	0.000000	0.999350	
1.000000	0.000000	0.976445	
0.029222	0.000000	1.000000	
0.071381	0.000000	1.000000	
0.250442	0.000000	1.000000	
0.437594	0.000000	1.000000	
0.592845	0.000000	1.000000	
0.750896	0.000000	1.000000	
0.882225	0.000000	1.000000	
0.957995	0.000000	0.999297	
1.000000	0.000000	0.977088	
0.000000	0.090955	1.000000	
0.034620	0.084534	1.000000	
0.201844	0.064996	1.000000	
0.404496	0.033656	1.000000	
0.569986	0.004689	1.000000	
0.734864	0.002994	1.000000	
0.883976	0.000000	1.000000	
0.967229	0.000000	1.000000	
1.000000	0.006527	0.987826	
0.000000	0.348362	1.000000	
0.000207	0.345441	1.000000	
0.089341	0.335531	1.000000	
0.329079	0.316906	1.000000	
0.520682	0.291454	1.000000	
0.712728	0.246075	1.000000	
0.875042	0.173013	1.000000	
0.976707	0.070709	1.000000	
1.000000	0.116549	0.994017	
0.000000	0.561376	1.000000	
0.000000	0.559847	1.000000	
0.001770	0.555271	1.000000	
0.215207	0.544125	1.000000	
0.450539	0.526627	1.000000	
0.658494	0.498927	1.000000	
0.849175	0.448265	1.000000	
0.968750	0.372762	1.000000	
1.000000	0.340835	0.994102	
0.000000	0.766147	1.000000	
0.000000	0.765521	1.000000	
0.000000	0.763705	1.000000	
0.016021	0.760415	1.000000	
0.266551	0.752603	1.000000	
0.541330	0.737356	1.000000	
0.794435	0.707730	1.000000	
0.953687	0.656937	1.000000	
1.000000	0.591474	0.994222	
0.000000	0.922695	1.000000	
0.000000	0.922541	1.000000	
0.000000	0.922115	1.000000	
0.000000	0.921337	1.000000	
0.000000	0.920239	1.000000	
0.204207	0.917023	1.000000	
0.658637	0.905468	1.000000	
0.912534	0.887016	1.000000	
1.000000	0.838315	0.993943	
0.000000	1.000000	1.000000	
0.000000	1.000000	1.000000	
0.000000	1.000000	1.000000	
0.000000	1.000000	1.000000	
0.000000	1.000000	1.000000	
0.023705	1.000000	1.000000	
0.359353	1.000000	1.000000	
0.809138	1.000000	1.000000	
1.000000	1.000000	1.000000	
