Luts/1.cube
# DaVinci Resolve Cube (3D LUT).
#
#Generated by LUT Editor.
#Not-Clipped.
# 
# Mavic 3 Pro, D-Log M, 2023-03-24
#
LUT_3D_SIZE 5
0.000000	0.000000	0.000000	
0.241729	0.000000	0.012889	
0.607057	0.000001	0.053420	
0.876255	0.000000	0.040716	
1.000000	0.022619	0.005273	
0.000000	0.204317	0.000000	
0.194744	0.198525	0.000000	
0.561938	0.189342	0.000001	
0.872120	0.143680	0.000000	
1.000000	0.153674	0.007699	
0.000007	0.519800	0.000000	
0.061747	0.518401	0.000000	
0.480557	0.501942	0.000000	
0.833324	0.458682	0.000843	
0.997881	0.365896	0.014007	
0.000026	0.830222	0.000003	
0.000463	0.829812	0.000037	
0.248121	0.823481	0.000481	
0.758761	0.784607	0.003023	
0.984726	0.649889	0.017248	
0.000031	1.000000	0.000004	
0.000061	1.000000	0.000006	
0.002357	1.000000	0.000021	
0.307470	1.000000	0.000078	
0.976235	0.984942	0.000000	
0.001543	0.000000	0.251893	
0.268964	0.000000	0.259947	
0.606349	0.000830	0.251395	
0.873673	0.005363	0.208646	
1.000000	0.014658	0.139313	
0.000000	0.201676	0.204238	
0.192473	0.192494	0.192566	
0.557539	0.153460	0.166274	
0.876913	0.116055	0.154849	
1.000000	0.080227	0.114873	
0.000000	0.518996	0.119228	
0.074456	0.516733	0.112958	
0.484625	0.496900	0.093787	
0.853859	0.438028	0.075948	
1.000000	0.297662	0.064899	
0.000000	0.829903	0.000000	
0.000000	0.829556	0.000000	
0.265196	0.823594	0.000885	
0.765404	0.786413	0.011387	
0.996735	0.651788	0.030085	
0.000002	1.000000	0.000001	
0.000015	1.000000	0.000002	
0.003093	1.000000	0.000014	
0.320058	1.000000	0.000078	
0.979387	0.988195	0.000000	
0.006600	0.000000	0.620078	
0.267378	0.000000	0.607005	
0.605379	0.000000	0.581305	
0.869007	0.000000	0.515661	
1.000000	0.010717	0.382802	
0.000000	0.186944	0.596905	
0.209735	0.168752	0.575518	
0.565353	0.133401	0.552533	
0.873104	0.110849	0.494441	
1.000000	0.077776	0.367329	
0.000000	0.514886	0.520160	
0.067154	0.510626	0.513695	
0.487409	0.487448	0.487588	
0.866682	0.416156	0.429407	
1.000000	0.289765	0.329121	
0.000000	0.826983	0.354437	
0.000032	0.826514	0.350960	
0.290196	0.820063	0.337178	
0.776990	0.787663	0.292299	
1.000000	0.650191	0.243557	
0.000000	1.000000	0.000000	
0.000000	1.000000	0.000000	
0.004917	1.000000	0.000002	
0.351290	1.000000	0.000081	
0.987879	0.996638	0.000000	
0.004493	0.000000	0.946283	
0.263988	0.000000	0.939045	
0.608545	0.000000	0.908971	
0.863813	0.000000	0.841841	
1.000000	0.000767	0.710838	
0.000000	0.110584	0.938400	
0.225105	0.086212	0.933287	
0.588656	0.046052	0.910066	
0.866023	0.084524	0.845840	
1.000000	0.066260	0.709364	
0.000000	0.481067	0.911508	
0.051170	0.473806	0.907144	
0.505583	0.445214	0.888157	
0.864411	0.377064	0.853279	
1.000000	0.270593	0.697755	
0.000000	0.815984	0.820449	
0.000000	0.815258	0.818990	
0.260995	0.808513	0.810544	
0.774289	0.774331	0.774474	
1.000000	0.638486	0.649128	
0.000000	1.000000	0.547186	
0.000000	1.000000	0.545729	
0.002122	1.000000	0.541402	
0.405495	1.000000	0.526795	
0.994067	1.000000	0.469982	
0.015742	0.000000	1.000000	
0.231644	0.000000	1.000000	
0.590232	0.000000	1.000000	
0.880725	0.000000	1.000000	
1.000000	0.000000	0.976438	
0.029222	0.000000	1.000000	
0.250442	0.000000	1.000000	
0.592845	0.000000	1.000000	
0.882225	0.000000	1.000000	
1.000000	0.000000	0.977088	
0.000000	0.348362	1.000000	
0.089341	0.335531	1.000000	
0.520682	0.291454	1.000000	
0.875042	0.173013	1.000000	
1.000000	0.116549	0.994017	
0.000000	0.766147	1.000000	
0.000000	0.763705	1.000000	
0.266551	0.752603	1.000000	
0.794435	0.707730	1.000000	
1.000000	0.591474	0.994222	
0.000000	1.000000	1.000000	
0.000000	1.000000	1.000000	
0.000000	1.000000	1.000000	
0.359353	1.000000	1.000000	
1.000000	1.000000	1.000000	
